X: 15120
T: Gibbous Moon
R: jig
M: 6/8
K: Dminor
E|:D2A A2A|BAG A2F|EFG A2F|EAG FED|
D2A A2A|BAG A2F|EFG A2F|1 EDC D2E:|2 EDC D2A||
|:dAA BAA|dAA B2F|EFG A2F|EAG FED|
dAA BAA|dAA B2F|EFG A2F|1 EDC D2A:|2 EDC D2E||

